!!!COM: Consolo, Federico
!!!CDT: 1841-1906
!!!OTL: National Anthem, San Marino
!!!ENC: Davis, Matthew J.
!!No Words, Melody Line Only
**kern
*clefG2
*k[f#]
*G:
*M2/2
=1-
2dd
2b
=2
2g
4a
4b
=3
2ee
2dd
=4
2a
2b
=5
2dd
3cc
3b
3cc
=6
2b
2dd
=7
2ee
2dd
=8
3b
3a
3g
2g
==:|!9
2cc
2a
=10
1fn
=11
2b
4b
4cc
=12
2b
2a
=13
2g
2b
=14
2a
2g
=15
2cc
4cc
4a
=16
4b
4a
2g
=17
2fn
4a
4g
=18
2dd
2b
=19
2g
3b
3a
3g
=20
2cc
2a
=21
2b
2b
=22
3cc
3b
3a
5a
5a
=23
2g
2f#
=24
2e
2d
=25
1d
=26
2B
2B
=27
4B
4r
4r
8.r
16gg
=28
2gg
2gg
=29
!Half note tremolos in this measure
4gg
4g
4gg
4g
=30
4gg
4r
2r
==|!
*-
